icons/themes/default/order.svg

<svg viewBox="0 0 16 16" fill="none" xmlns="http://www.w3.org/2000/svg">
<path fill-rule="evenodd" clip-rule="evenodd" d="M2.94995 3.34006C2.94995 2.8238 3.07868 2.52844 3.2485 2.35861C3.41833 2.18879 3.71369 2.06006 4.22995 2.06006H11.79C12.3062 2.06006 12.6016 2.18879 12.7714 2.35861C12.9412 2.52844 13.07 2.8238 13.07 3.34006V12.6801C13.07 13.1963 12.9412 13.4917 12.7714 13.6615C12.6016 13.8313 12.3062 13.9601 11.79 13.9601H4.22995C3.71369 13.9601 3.41833 13.8313 3.2485 13.6615C3.07868 13.4917 2.94995 13.1963 2.94995 12.6801V3.34006ZM4.22995 1.06006C3.55955 1.06006 2.9649 1.228 2.5414 1.65151C2.11789 2.07501 1.94995 2.66965 1.94995 3.34006V12.6801C1.94995 13.3505 2.11789 13.9451 2.5414 14.3686C2.9649 14.7921 3.55955 14.9601 4.22995 14.9601H11.79C12.4604 14.9601 13.055 14.7921 13.4785 14.3686C13.902 13.9451 14.07 13.3505 14.07 12.6801V3.34006C14.07 2.66965 13.902 2.07501 13.4785 1.65151C13.055 1.228 12.4604 1.06006 11.79 1.06006H4.22995ZM10.4842 4.32015C10.661 4.10802 10.6323 3.79273 10.4202 3.61595C10.2081 3.43917 9.89277 3.46783 9.71599 3.67997L7.53568 6.29634L6.31961 5.28555C6.10725 5.10903 5.792 5.13809 5.61549 5.35045C5.43897 5.56281 5.46803 5.87806 5.68039 6.05457L7.28049 7.38458C7.49266 7.56093 7.80758 7.5321 7.98421 7.32016L10.4842 4.32015Z" fill="currentColor"/>
<path d="M6 9.67L7.6001 11L10.1001 8" stroke="currentColor" stroke-linecap="round" stroke-linejoin="round"/>
</svg>

<svg xmlns="http://www.w3.org/2000/svg" fill="none" viewBox="0 0 16 16">
  <path fill="currentColor" fill-rule="evenodd" d="M2.95 3.34c0-.516.129-.812.298-.981.17-.17.466-.299.982-.299h7.56c.516 0 .812.129.981.299.17.17.299.465.299.981v9.34c0 .516-.129.812-.299.982-.17.17-.465.298-.981.298H4.23c-.516 0-.812-.129-.982-.299-.17-.17-.298-.465-.298-.98V3.34Zm1.28-2.28c-.67 0-1.265.168-1.689.592-.423.423-.591 1.018-.591 1.688v9.34c0 .67.168 1.265.591 1.689.424.423 1.019.591 1.689.591h7.56c.67 0 1.265-.168 1.689-.591.423-.424.591-1.018.591-1.689V3.34c0-.67-.168-1.265-.591-1.688-.424-.424-1.019-.592-1.689-.592H4.23Zm6.254 3.26a.5.5 0 0 0-.768-.64l-2.18 2.616-1.216-1.01a.5.5 0 1 0-.64.769l1.6 1.33a.5.5 0 0 0 .704-.065l2.5-3Z" clip-rule="evenodd"/>
  <path stroke="currentColor" stroke-linecap="round" stroke-linejoin="round" d="M6 9.67 7.6 11l2.5-3"/>
</svg>
